X:514
T:B514-  While I Gaze on Chloris Trembling
S:(1st/2)
Q:1/4=120
L:1/4
M:C|
K:Gm
G3/2A/B(c3/4d/4)|B3/2A/B(A/G/)|B3/B/c(d3/4e/4)|c3/2d/d2|\
A3/2B/c(B/A/)|B3/2c/d(c/B/)|F3/2F/G(G/4A/4B/)|B3/2A/B2|\
d(c/B/)d(d/4e/4f/)|e3/2d/ (c3/4d/4)c|c3/2c/d(c/B/)|B3/2A/A2|\
G3/2d/c(B/A/)|B3/2c/ (B/A/) (G/F/)|c3/2d/ (d/c/) (B/A/)|\
^F3/2G/.G2|]

